src/usr/share/icons/Lubuntu/symbolic/folder-remote-symbolic.svg

<?xml version="1.0" encoding="UTF-8" standalone="no"?>
<!-- Created with Inkscape (http://www.inkscape.org/) -->

<svg
   xmlns:dc="http://purl.org/dc/elements/1.1/"
   xmlns:cc="http://creativecommons.org/ns#"
   xmlns:rdf="http://www.w3.org/1999/02/22-rdf-syntax-ns#"
   xmlns:svg="http://www.w3.org/2000/svg"
   xmlns="http://www.w3.org/2000/svg"
   xmlns:sodipodi="http://sodipodi.sourceforge.net/DTD/sodipodi-0.dtd"
   xmlns:inkscape="http://www.inkscape.org/namespaces/inkscape"
   width="16px"
   height="16px"
   id="svg2593"
   sodipodi:version="0.32"
   inkscape:version="0.91 r"
   sodipodi:docname="folder-remote-symbolic.svg"
   inkscape:output_extension="org.inkscape.output.svg.inkscape"
   version="1.1"
   inkscape:export-filename="/home/rafa/.icons/lubuntu box/_press/box guide/folder16.png"
   inkscape:export-xdpi="90"
   inkscape:export-ydpi="90">
  <defs
     id="defs2595" />
  <sodipodi:namedview
     id="base"
     pagecolor="#ffffff"
     bordercolor="#666666"
     borderopacity="1.0"
     inkscape:pageopacity="0.0"
     inkscape:pageshadow="2"
     inkscape:zoom="32"
     inkscape:cx="10.550019"
     inkscape:cy="9.294474"
     inkscape:current-layer="layer1"
     showgrid="true"
     inkscape:grid-bbox="true"
     inkscape:document-units="px"
     inkscape:window-width="1280"
     inkscape:window-height="998"
     inkscape:window-x="0"
     inkscape:window-y="0"
     inkscape:window-maximized="1"
     inkscape:snap-global="true"
     inkscape:snap-grids="true"
     inkscape:snap-to-guides="true"
     inkscape:snap-bbox="true">
    <inkscape:grid
       type="xygrid"
       id="grid965" />
  </sodipodi:namedview>
  <metadata
     id="metadata2598">
    <rdf:RDF>
      <cc:Work
         rdf:about="">
        <dc:format>image/svg+xml</dc:format>
        <dc:type
           rdf:resource="http://purl.org/dc/dcmitype/StillImage" />
        <dc:title />
      </cc:Work>
    </rdf:RDF>
  </metadata>
  <g
     id="layer1"
     inkscape:label="Layer 1"
     inkscape:groupmode="layer">
    <path
       style="color:#000000;display:inline;overflow:visible;visibility:visible;opacity:1;fill:#bebebe;fill-opacity:1;fill-rule:nonzero;stroke:none;stroke-width:1;marker:none;enable-background:accumulate"
       d="m 3,0 -2,2 0,8 2,2 4,0 0,2 -6,0 -1,1 1,1 14,0 1,-1 -1,-1 -6,0 0,-2 4,0 2,-2 L 15,5 14,4 4,4 4,10 3,10 3,3 14,3 12,1 8,1 7,0 Z"
       id="path3002"
       inkscape:connector-curvature="0"
       sodipodi:nodetypes="ccccccccccccccccccccccccccc" />
    <g
       transform="translate(-423.999,-176.0004)"
       id="layer13">
      <g
         transform="translate(234,-820)"
         id="g14154" />
    </g>
    <g
       transform="translate(-430.50937,-166.94842)"
       id="layer13-8">
      <g
         transform="translate(234,-820)"
         id="g14154-0" />
    </g>
  </g>
</svg>

<?xml version="1.0" encoding="UTF-8" standalone="no"?>
<!-- Created with Inkscape (http://www.inkscape.org/) -->

<svg xmlns:dc="http://purl.org/dc/elements/1.1/" xmlns:cc="http://creativecommons.org/ns#" xmlns:rdf="http://www.w3.org/1999/02/22-rdf-syntax-ns#" xmlns:svg="http://www.w3.org/2000/svg" xmlns="http://www.w3.org/2000/svg" xmlns:sodipodi="http://sodipodi.sourceforge.net/DTD/sodipodi-0.dtd" xmlns:inkscape="http://www.inkscape.org/namespaces/inkscape" width="16px" height="16px" id="svg2593" sodipodi:version="0.32" inkscape:version="0.48.4 r9939" sodipodi:docname="folder-remote-symbolic.svg" inkscape:output_extension="org.inkscape.output.svg.inkscape" version="1.1" inkscape:export-filename="/home/rafa/.icons/lubuntu box/_press/box guide/folder16.png" inkscape:export-xdpi="90" inkscape:export-ydpi="90">
    <defs id="defs2595" />
    <sodipodi:namedview id="base" pagecolor="#ffffff" bordercolor="#666666" borderopacity="1.0" inkscape:pageopacity="0.0" inkscape:pageshadow="2" inkscape:zoom="32" inkscape:cx="8.425019" inkscape:cy="6.981974" inkscape:current-layer="layer1" showgrid="true" inkscape:grid-bbox="true" inkscape:document-units="px" inkscape:window-width="1280" inkscape:window-height="998" inkscape:window-x="0" inkscape:window-y="0" inkscape:window-maximized="1" inkscape:snap-global="true" inkscape:snap-grids="true" inkscape:snap-to-guides="true" inkscape:snap-bbox="true">
        <inkscape:grid type="xygrid" id="grid965" />
    </sodipodi:namedview>
    <metadata id="metadata2598">
        <rdf:RDF>
            <cc:Work rdf:about="">
                <dc:format>image/svg+xml</dc:format>
                <dc:type rdf:resource="http://purl.org/dc/dcmitype/StillImage" />
                <dc:title />
            </cc:Work>
        </rdf:RDF>
    </metadata>
    <g id="layer1" inkscape:label="Layer 1" inkscape:groupmode="layer">
        <path style="opacity:1;color:black;fill:#bebebe;fill-opacity:1;fill-rule:nonzero;stroke:none;stroke-width:1;marker:none;visibility:visible;display:inline;overflow:visible;enable-background:accumulate" d="M 3 0 L 1 2 L 1 11 L 2 12 L 7 12 L 7 14 L 1 14 L 0 15 L 1 16 L 15 16 L 16 15 L 15 14 L 9 14 L 9 12 L 14 12 L 15 11 L 15 5 L 14 4 L 4 4 L 4 10 L 3 10 L 3 3 L 14 3 L 12 1 L 8 1 L 7 0 L 3 0 z " id="path3002" />
        <g transform="translate(-423.999,-176.0004)" id="layer13">
            <g transform="translate(234,-820)" id="g14154" />
        </g>
        <g transform="translate(-430.50937,-166.94842)" id="layer13-8">
            <g transform="translate(234,-820)" id="g14154-0" />
        </g>
    </g>
</svg>
